X:149
T: ALLE MEINE ENTCHEN
N: K2254A
O: Europa, Mitteleuropa, Deutschland
R: Kinder - Lied, Reigen, Tanz, Nachahmungs - Spiel
M: 2/4
L: 1/8
K: C
 | CDEF | G2G2 |
AAAA | G2z2 |
AAAA | G2z2 |
FFFF | E2E2 |
DDDD | C2z2

